X:046
T:From Night Till Morn
M:4/4
L:1/8
K:G
B2 B2 B2 AG | AGAB G2 AB | cBAG GABc | d2 ed B2 A2 | 
B2 B2 B2 AG | AGAB G2 AB | cBAG GABG | A4 G4 :|| 
GABc d2 d2 | d2 e2 d4 | e2 d2 g2 B2 | d2 ed B2 A2 | 
B2 B2 B2 AG | AGAB G2 AB | cBAG GABG | A4 G4 :| 

